sort-calendar-descending.svg

<svg fill="currentColor" viewBox="0 0 24 24"><path d="M19 7h-3l4-4 4 4h-3v14h-2zM8 16h3v-3H8zm5-11h-1V3h-2v2H6V3H4v2H3c-1.11 0-2 .89-2 2v11c0 1.11.89 2 2 2h10c1.11 0 2-.89 2-2V7c0-1.11-.89-2-2-2M3 18v-7h10v7z"/></svg>

<svg  viewBox="0 0 24 24" fill="currentColor"><path  d="M19 7H16L20 3L24 7H21V21H19V7M8 16H11V13H8V16M13 5H12V3H10V5H6V3H4V5H3C1.89 5 1 5.89 1 7V18C1 19.11 1.89 20 3 20H13C14.11 20 15 19.11 15 18V7C15 5.89 14.11 5 13 5M3 18L3 11H13L13 18L3 18Z"/></svg>
